; generated by PrusaSlicer 2.9.0 on 2025-02-19 at 23:14:38 UTC

; 

; external perimeters extrusion width = 0.45mm
; perimeters extrusion width = 0.45mm
; infill extrusion width = 0.45mm
; solid infill extrusion width = 0.45mm
; top infill extrusion width = 0.45mm
; first layer extrusion width = 0.45mm

M201 X1500 Y1500 Z100 E5000 ; sets maximum accelerations, mm/sec^2
M203 X500 Y500 Z10 E60 ; sets maximum feedrates, mm / sec
M204 P1500 R1000 T1500 ; sets acceleration (P, T) and retract acceleration (R), mm/sec^2
M205 X0.00 Y0.00 Z0.00 E0.00 ; sets the jerk limits, mm/sec
M205 S0 T0 ; sets the minimum extruding and travel feed rate, mm/sec
;TYPE:Custom
G90 ; use absolute coordinates
M83 ; extruder relative mode
M140 S90 ; set final bed temp
M104 S150 ; set temporary nozzle temp to prevent oozing during homing
G4 S10 ; allow partial nozzle warmup
G28 ; home all axis
G1 Z50 F240
G1 X2 Y10 F3000
M104 S240 ; set final nozzle temp
M190 S90 ; wait for bed temp to stabilize
M109 S240 ; wait for nozzle temp to stabilize
G1 Z0.28 F240
G92 E0
G1 Y140 E10 F1500 ; prime the nozzle
G1 X2.3 F5000
G92 E0
G1 Y10 E10 F1200 ; prime the nozzle
G92 E0
G21 ; set units to millimeters
G90 ; use absolute coordinates
M83 ; use relative distances for extrusion
; Filament gcode
M900 K0
M107
;LAYER_CHANGE
;Z:0.2
;HEIGHT:0.2
G1 E-1.5 F1500
G1 Z.2 F9000
G1 X53.383 Y53.875
G1 Z.2
G1 E1.5 F2400
;TYPE:Skirt/Brim
;WIDTH:0.45
G1 F3600
G1 X53.968 Y53.307 E.0276
G1 X54.328 Y53.087 E.01428
G1 X55.108 Y52.854 E.02755
G1 X128.376 Y52.86 E2.48003
G1 X128.996 Y53.007 E.02157
G1 X129.519 Y53.267 E.01977
G1 X130.073 Y53.745 E.02477
G1 X132.958 Y57.854 E.16994
G1 X137.703 Y57.854 E.16061
G1 X140.587 Y53.745 E.16992
G1 X141.145 Y53.264 E.02494
G1 X141.705 Y52.992 E.02107
G1 X142.28 Y52.86 E.01997
G1 X176.171 Y52.902 E1.14717
G1 X176.967 Y53.257 E.0295
G1 X177.614 Y53.871 E.03019
G1 X177.941 Y54.388 E.02071
G1 X178.128 Y54.992 E.0214
G1 X178.115 Y64.081 E.30765
G1 X177.938 Y64.62 E.0192
G1 X177.707 Y65.013 E.01543
G1 X177.129 Y65.613 E.0282
G1 X176.672 Y65.913 E.0185
G1 X175.892 Y66.146 E.02755
G1 X123.251 Y66.146 E1.78184
G1 X122.428 Y65.921 E.02888
G1 X121.98 Y65.678 E.01725
G1 X120.909 Y64.646 E.05034
G1 X118.091 Y64.646 E.09539
G1 X117.02 Y65.678 E.05034
G1 X116.572 Y65.921 E.01725
G1 X115.749 Y66.146 E.02888
G1 X66.146 Y66.146 E1.679
G1 X66.146 Y98.018 E1.07883
G1 X66.021 Y98.642 E.02154
G1 X65.737 Y99.255 E.02287
G1 X64.646 Y100.544 E.05716
G1 X64.646 Y104.327 E.12805
G1 X65.737 Y105.616 E.05716
G1 X66.021 Y106.229 E.02287
G1 X66.146 Y106.853 E.02154
G1 X66.146 Y132.147 E.85617
G1 X66.021 Y132.771 E.02154
G1 X65.737 Y133.384 E.02287
G1 X64.646 Y134.673 E.05716
G1 X64.646 Y138.456 E.12805
G1 X65.737 Y139.745 E.05716
G1 X66.021 Y140.358 E.02287
G1 X66.146 Y140.982 E.02154
G1 X66.146 Y175.889 E1.18156
G1 X65.942 Y176.61 E.02536
G1 X65.62 Y177.122 E.02047
G1 X64.841 Y177.827 E.03556
G1 X63.956 Y178.135 E.03172
G1 X55.111 Y178.146 E.29939
G1 X54.228 Y177.864 E.03138
G1 X53.875 Y177.617 E.01458
G1 X53.307 Y177.032 E.0276
G1 X53.087 Y176.672 E.01428
G1 X52.854 Y175.892 E.02755
G1 X52.854 Y102.675 E2.47831
G1 X52.986 Y102.062 E.02122
G1 X53.264 Y101.486 E.02165
G1 X53.707 Y100.961 E.02325
G1 X57.854 Y98.042 E.17166
G1 X57.854 Y93.297 E.16061
G1 X53.745 Y90.413 E.16992
G1 X53.264 Y89.854 E.02496
G1 X53.006 Y89.336 E.01959
G1 X52.865 Y88.766 E.01988
G1 X52.854 Y55.111 E1.13918
G1 X53.136 Y54.228 E.03138
G1 X53.348 Y53.924 E.01255
G1 X53.348 Y53.924 F9000
G1 X53.681 Y54.154
G1 F3600
G1 X53.683 Y54.151 E.00012
G1 X54.477 Y53.467 E.03547
G1 X55.14 Y53.261 E.0235
G1 X128.351 Y53.267 E2.47811
G1 X128.875 Y53.396 E.01827
G1 X129.311 Y53.617 E.01655
G1 X129.786 Y54.034 E.02139
G1 X132.746 Y58.261 E.17467
G1 X137.915 Y58.261 E.17496
G1 X140.874 Y54.034 E.17465
G1 X141.352 Y53.616 E.02149
G1 X141.824 Y53.382 E.01783
G1 X142.304 Y53.267 E.01671
G1 X176.067 Y53.297 E1.14284
G1 X176.741 Y53.596 E.02496
G1 X177.314 Y54.148 E.02693
G1 X177.561 Y54.534 E.01551
G1 X177.73 Y55.083 E.01944
G1 X177.718 Y63.985 E.30132
G1 X177.371 Y64.782 E.02942
G1 X176.853 Y65.313 E.02511
G1 X176.522 Y65.533 E.01345
G1 X175.86 Y65.739 E.02347
G1 X123.28 Y65.739 E1.77977
G1 X122.564 Y65.536 E.02519
G1 X122.203 Y65.336 E.01397
G1 X121.075 Y64.239 E.05326
G1 X117.925 Y64.239 E.10662
G1 X116.797 Y65.336 E.05326
G1 X116.436 Y65.536 E.01397
G1 X115.72 Y65.739 E.02519
G1 X65.739 Y65.739 E1.6918
G1 X65.739 Y97.997 E1.09189
G1 X65.628 Y98.535 E.01859
G1 X65.382 Y99.055 E.01947
G1 X64.239 Y100.394 E.05959
G1 X64.239 Y104.478 E.13824
G1 X65.382 Y105.816 E.05957
G1 X65.628 Y106.336 E.01947
G1 X65.739 Y106.874 E.01859
G1 X65.739 Y132.126 E.85475
G1 X65.628 Y132.664 E.01859
G1 X65.382 Y133.184 E.01947
G1 X64.239 Y134.522 E.05957
G1 X64.239 Y138.606 E.13824
G1 X65.382 Y139.945 E.05959
G1 X65.628 Y140.465 E.01947
G1 X65.739 Y141.003 E.01859
G1 X65.739 Y175.858 E1.1798
G1 X65.56 Y176.467 E.02149
G1 X65.317 Y176.85 E.01535
G1 X64.627 Y177.48 E.03163
G1 X63.859 Y177.739 E.02743
G1 X55.143 Y177.739 E.29503
G1 X54.434 Y177.512 E.0252
G1 X54.151 Y177.317 E.01163
G1 X53.467 Y176.523 E.03547
G1 X53.261 Y175.86 E.0235
G1 X53.261 Y102.698 E2.47645
G1 X53.377 Y102.176 E.0181
G1 X53.617 Y101.691 E.01832
G1 X53.999 Y101.246 E.01985
G1 X58.261 Y98.254 E.17626
G1 X58.261 Y93.085 E.17496
G1 X54.034 Y90.126 E.17465
G1 X53.616 Y89.648 E.02149
G1 X53.382 Y89.176 E.01783
G1 X53.267 Y88.696 E.01671
G1 X53.261 Y55.143 E1.13573
G1 X53.488 Y54.434 E.0252
G1 X53.647 Y54.203 E.00949
G1 X53.97 Y54.495 F9000
G1 F3600
G1 X54.448 Y53.966 E.02413
G1 X55.174 Y53.668 E.02656
G1 X128.324 Y53.674 E2.47604
G1 X129.1 Y53.966 E.02806
G1 X129.466 Y54.287 E.01648
G1 X132.534 Y58.668 E.18104
G1 X138.127 Y58.668 E.18932
G1 X141.194 Y54.288 E.18099
G1 X141.559 Y53.967 E.01645
G1 X142.33 Y53.674 E.02792
G1 X175.963 Y53.692 E1.13844
G1 X176.51 Y53.933 E.02023
G1 X177.013 Y54.423 E.02377
G1 X177.18 Y54.682 E.01043
G1 X177.332 Y55.173 E.0174
G1 X177.322 Y63.888 E.29499
G1 X177.039 Y64.546 E.02425
G1 X176.577 Y65.013 E.02224
G1 X175.826 Y65.332 E.02762
G1 X123.31 Y65.332 E1.7776
G1 X122.428 Y64.997 E.03194
G1 X121.242 Y63.832 E.05627
G1 X117.758 Y63.832 E.11793
G1 X116.572 Y64.997 E.05627
G1 X115.69 Y65.332 E.03194
G1 X65.332 Y65.332 E1.70456
G1 X65.332 Y97.977 E1.10499
G1 X65.25 Y98.383 E.01402
G1 X65.026 Y98.856 E.01772
G1 X63.832 Y100.242 E.06192
G1 X63.832 Y104.629 E.14849
G1 X65.026 Y106.015 E.06192
G1 X65.25 Y106.488 E.01772
G1 X65.332 Y106.894 E.01402
G1 X65.332 Y132.106 E.8534
G1 X65.25 Y132.512 E.01402
G1 X65.026 Y132.985 E.01772
G1 X63.832 Y134.371 E.06192
G1 X63.832 Y138.758 E.14849
G1 X65.026 Y140.144 E.06192
G1 X65.25 Y140.617 E.01772
G1 X65.332 Y141.023 E.01402
G1 X65.332 Y175.826 E1.17804
G1 X65.18 Y176.318 E.01743
G1 X64.575 Y177.015 E.03124
G1 X63.825 Y177.332 E.02756
G1 X55.175 Y177.332 E.29279
G1 X54.637 Y177.158 E.01914
G1 X53.966 Y176.552 E.0306
G1 X53.668 Y175.826 E.02656
G1 X53.668 Y102.722 E2.47448
G1 X53.768 Y102.294 E.01488
G1 X53.967 Y101.899 E.01497
G1 X54.288 Y101.534 E.01645
G1 X58.668 Y98.466 E.18101
G1 X58.668 Y92.873 E.18932
G1 X54.287 Y89.806 E.18102
G1 X53.967 Y89.441 E.01643
G1 X53.674 Y88.67 E.02792
G1 X53.668 Y55.175 E1.13377
G1 X53.842 Y54.637 E.01914
G1 X53.93 Y54.539 E.00446
G1 X53.93 Y54.539 F9000
G1 X54.224 Y54.807
G1 F3600
G1 X54.699 Y54.286 E.02386
G1 X55.209 Y54.075 E.01868
G1 X128.252 Y54.075 E2.47242
G1 X128.891 Y54.316 E.02312
G1 X129.147 Y54.541 E.01154
G1 X132.322 Y59.075 E.18736
G1 X138.338 Y59.075 E.20363
G1 X141.513 Y54.541 E.18736
G1 X141.77 Y54.316 E.01156
G1 X142.359 Y54.081 E.02147
G1 X175.859 Y54.087 E1.13394
G1 X176.275 Y54.265 E.01532
G1 X176.712 Y54.697 E.0208
G1 X176.925 Y55.208 E.01874
G1 X176.925 Y63.792 E.29056
G1 X176.712 Y64.303 E.01874
G1 X176.301 Y64.714 E.01967
G1 X175.791 Y64.925 E.01868
G1 X123.342 Y64.925 E1.77534
G1 X122.658 Y64.66 E.02483
G1 X121.41 Y63.425 E.05943
G1 X117.59 Y63.425 E.1293
G1 X116.342 Y64.66 E.05943
G1 X115.658 Y64.925 E.02483
G1 X64.925 Y64.925 E1.71725
G1 X64.925 Y97.958 E1.11813
G1 X64.67 Y98.656 E.02515
G1 X63.425 Y100.089 E.06425
G1 X63.425 Y104.782 E.15885
G1 X64.67 Y106.215 E.06425
G1 X64.925 Y106.914 E.02519
G1 X64.925 Y132.086 E.85204
G1 X64.67 Y132.785 E.02519
G1 X63.425 Y134.218 E.06425
G1 X63.425 Y138.911 E.15885
G1 X64.67 Y140.344 E.06425
G1 X64.925 Y141.042 E.02515
G1 X64.925 Y175.792 E1.17625
G1 X64.712 Y176.303 E.01874
G1 X64.301 Y176.714 E.01967
G1 X63.791 Y176.925 E.01868
G1 X55.208 Y176.925 E.29052
G1 X54.836 Y176.803 E.01325
G1 X54.286 Y176.301 E.02521
G1 X54.075 Y175.791 E.01868
G1 X54.075 Y102.748 E2.47242
G1 X54.316 Y102.109 E.02312
G1 X54.541 Y101.853 E.01154
G1 X59.075 Y98.678 E.18736
G1 X59.075 Y92.662 E.20363
G1 X54.541 Y89.487 E.18736
G1 X54.316 Y89.23 E.01156
G1 X54.081 Y88.641 E.02147
G1 X54.075 Y55.208 E1.13167
G1 X54.191 Y54.856 E.01255
G1 X54.191 Y54.856 F9000
G1 X54.57 Y55
G1 F3600
G1 X54.971 Y54.59 E.01941
G1 X55.246 Y54.482 E.01
G1 X128.417 Y54.529 E2.47675
G1 X128.828 Y54.795 E.01657
G1 X132.11 Y59.482 E.19368
G1 X138.55 Y59.482 E.21799
G1 X141.833 Y54.795 E.1937
G1 X142.387 Y54.488 E.02144
G1 X175.754 Y54.482 E1.12943
G1 X176.029 Y54.59 E.01
G1 X176.41 Y54.971 E.01824
G1 X176.518 Y55.246 E.01
G1 X176.518 Y63.754 E.28799
G1 X176.41 Y64.029 E.01
G1 X176.029 Y64.41 E.01824
G1 X175.754 Y64.518 E.01
G1 X123.376 Y64.518 E1.77293
G1 X122.894 Y64.328 E.01754
G1 X121.578 Y63.018 E.06285
G1 X117.422 Y63.018 E.14068
G1 X116.106 Y64.328 E.06285
G1 X115.624 Y64.518 E.01754
G1 X64.518 Y64.518 E1.72988
G1 X64.518 Y97.939 E1.13126
G1 X64.342 Y98.412 E.01708
G1 X63.018 Y99.937 E.06836
G1 X63.018 Y104.934 E.16914
G1 X64.342 Y106.459 E.06836
G1 X64.518 Y106.932 E.01708
G1 X64.518 Y132.068 E.85082
G1 X64.342 Y132.541 E.01708
G1 X63.018 Y134.066 E.06836
G1 X63.018 Y139.063 E.16914
G1 X64.342 Y140.588 E.06836
G1 X64.518 Y141.061 E.01708
G1 X64.518 Y175.754 E1.17432
G1 X64.41 Y176.029 E.01
G1 X64.029 Y176.41 E.01824
G1 X63.754 Y176.518 E.01
G1 X55.246 Y176.518 E.28799
G1 X55 Y176.43 E.00884
G1 X54.59 Y176.029 E.01941
G1 X54.482 Y175.754 E.01
G1 X54.482 Y102.772 E2.47035
G1 X54.795 Y102.172 E.02291
G1 X59.482 Y98.89 E.19368
G1 X59.482 Y92.45 E.21799
G1 X54.795 Y89.167 E.1937
G1 X54.488 Y88.613 E.02144
G1 X54.482 Y55.246 E1.12943
G1 X54.55 Y55.057 E.0068
G1 X54.55 Y55.057 F9000
G1 X54.92 Y55.216
G1 F3600
G1 X55.291 Y54.889 E.01674
G1 X128.203 Y54.889 E2.46798
G1 X128.508 Y55.048 E.01164
G1 X131.898 Y59.889 E.20004
G1 X138.762 Y59.889 E.23234
G1 X142.152 Y55.048 E.20004
G1 X142.457 Y54.889 E.01164
G1 X175.709 Y54.889 E1.12554
G1 X176.111 Y55.291 E.01924
G1 X176.111 Y63.709 E.28494
G1 X175.709 Y64.111 E.01924
G1 X123.414 Y64.111 E1.77012
G1 X123.14 Y64.003 E.00997
G1 X121.747 Y62.611 E.06666
G1 X117.253 Y62.611 E.15212
G1 X115.86 Y64.003 E.06666
G1 X115.586 Y64.111 E.00997
G1 X64.111 Y64.111 E1.74237
G1 X64.111 Y97.922 E1.14446
G1 X64.012 Y98.172 E.0091
G1 X62.611 Y99.785 E.07232
G1 X62.611 Y105.086 E.17943
G1 X64.012 Y106.7 E.07234
G1 X64.111 Y106.949 E.00907
G1 X64.111 Y132.051 E.84967
G1 X64.012 Y132.3 E.00907
G1 X62.611 Y133.914 E.07234
G1 X62.611 Y139.215 E.17943
G1 X64.012 Y140.828 E.07232
G1 X64.111 Y141.078 E.0091
G1 X64.111 Y175.709 E1.17222
G1 X63.709 Y176.111 E.01924
G1 X55.216 Y176.08 E.28748
G1 X54.889 Y175.709 E.01674
G1 X54.889 Y102.797 E2.46798
G1 X55.048 Y102.492 E.01164
G1 X59.889 Y99.102 E.20004
G1 X59.889 Y92.238 E.23234
G1 X55.048 Y88.848 E.20004
G1 X54.889 Y88.543 E.01164
G1 X54.92 Y55.276 E1.12605
G1 X54.92 Y55.276 F9000
G1 X55.296 Y55.416
G1 F3600
G1 X55.416 Y55.296 E.00574
G1 X128.129 Y55.296 E2.46125
G1 X131.686 Y60.296 E.2077
G1 X138.974 Y60.296 E.24669
G1 X142.531 Y55.296 E.2077
G1 X175.584 Y55.296 E1.1188
G1 X175.704 Y55.416 E.00574
G1 X175.704 Y63.584 E.27648
G1 X175.584 Y63.704 E.00574
G1 X123.46 Y63.704 E1.76434
G1 X121.916 Y62.204 E.07286
G1 X117.084 Y62.204 E.16356
G1 X115.54 Y63.704 E.07286
G1 X63.704 Y63.704 E1.75459
G1 X63.704 Y97.867 E1.15638
G1 X62.204 Y99.633 E.07843
G1 X62.204 Y105.238 E.18972
G1 X63.704 Y107.004 E.07843
G1 X63.704 Y131.996 E.84595
G1 X62.204 Y133.762 E.07843
G1 X62.204 Y139.367 E.18972
G1 X63.704 Y141.133 E.07843
G1 X63.704 Y175.584 E1.16613
G1 X63.584 Y175.704 E.00574
G1 X55.416 Y175.704 E.27648
G1 X55.296 Y175.584 E.00574
G1 X55.296 Y102.871 E2.46125
G1 X60.296 Y99.314 E.2077
G1 X60.296 Y92.026 E.24669
G1 X55.296 Y88.469 E.2077
G1 X55.296 Y55.476 E1.11677
G1 E-1.05 F1500
;WIPE_START
G1 F7200
G1 X55.296 Y55.416 E-.01187
G1 X55.416 Y55.296 E-.03359
G1 X57.46 Y55.296 E-.40454
;WIPE_END
G1 X60.296 Y139.509 F9000
G1 E1.5 F2400
G1 F3600
G1 X60.296 Y145.179 E.19192
G1 X56.248 Y142.344 E.16728
G1 X60.247 Y139.543 E.16526
G1 X60.247 Y139.543 F9000
G1 X59.889 Y140.291
G1 F3600
G1 X59.889 Y144.397 E.13898
G1 X56.957 Y142.344 E.12116
G1 X59.84 Y140.325 E.11914
G1 X59.84 Y140.325 F9000
G1 X59.482 Y141.073
G1 F3600
G1 X59.482 Y143.615 E.08604
G1 X57.667 Y142.344 E.075
G1 X59.433 Y141.107 E.07298
G1 X59.433 Y141.107 F9000
G1 X59.075 Y141.855
G1 F3600
G1 X59.075 Y142.833 E.0331
G1 X58.377 Y142.344 E.02885
G1 X59.026 Y141.889 E.02683
G1 E-1.05 F1500
;WIPE_START
G1 F7200
G1 X59.075 Y141.855 E-.0118
G1 X59.075 Y142.833 E-.19356
G1 X58.377 Y142.344 E-.16867
G1 X58.691 Y142.124 E-.07597
;WIPE_END
G1 X85.821 Y60.296 F9000
G1 E1.5 F2400
G1 F3600
G1 X88.656 Y56.248 E.16728
G1 X91.491 Y60.296 E.16728
G1 X85.881 Y60.296 E.18989
G1 X85.881 Y60.296 F9000
G1 X86.603 Y59.889
G1 F3600
G1 X88.656 Y56.957 E.12116
G1 X90.709 Y59.889 E.12116
G1 X86.663 Y59.889 E.13695
G1 X86.663 Y59.889 F9000
G1 X87.385 Y59.482
G1 F3600
G1 X88.656 Y57.667 E.075
G1 X89.927 Y59.482 E.075
G1 X87.445 Y59.482 E.08401
G1 X87.445 Y59.482 F9000
G1 X88.167 Y59.075
G1 F3600
G1 X88.656 Y58.377 E.02885
G1 X89.145 Y59.075 E.02885
G1 X88.227 Y59.075 E.03107
G1 X88.227 Y59.075 F9000
G1 X88.227 Y60.725
;TYPE:External perimeter
G1 F3600
G1 X91.38 Y60.725 E.10673
G1 X92.314 Y60.725 E.03161
G1 X88.956 Y55.929 E.19818
G1 X88.956 Y55.725 E.00691
G1 X127.962 Y55.725 E1.32031
G1 X131.463 Y60.725 E.20661
G1 X139.01 Y60.725 E.25546
G1 X139.197 Y60.725 E.00633
G1 X142.698 Y55.725 E.20661
G1 X175.275 Y55.725 E1.10269
G1 X175.275 Y63.275 E.25556
G1 X123.593 Y63.275 E1.74937
G1 X122.093 Y61.775 E.0718
G1 X116.907 Y61.775 E.17554
G1 X115.407 Y63.275 E.0718
G1 X63.275 Y63.275 E1.76461
G1 X63.275 Y97.746 E1.1668
G1 X61.775 Y99.473 E.07743
G1 X61.775 Y105.398 E.20055
G1 X63.275 Y107.125 E.07743
G1 X63.275 Y131.875 E.83776
G1 X61.775 Y133.602 E.07743
G1 X61.775 Y139.527 E.20055
G1 X63.275 Y141.254 E.07743
G1 X63.275 Y175.275 E1.15157
G1 X55.725 Y175.275 E.25556
G1 X55.725 Y142.644 E1.10452
G1 X55.929 Y142.644 E.00691
G1 X60.725 Y146.002 E.19818
G1 X60.725 Y139.62 E.21602
G1 X60.725 Y138.686 E.03161
G1 X55.929 Y142.044 E.19818
G1 X55.725 Y142.044 E.00691
G1 X55.725 Y103.038 E1.32031
G1 X60.725 Y99.537 E.20661
G1 X60.725 Y92.501 E.23816
G1 X60.725 Y91.803 E.02363
G1 X55.725 Y88.302 E.20661
G1 X55.725 Y55.725 E1.10269
G1 X88.356 Y55.725 E1.10452
G1 X88.356 Y55.929 E.00691
G1 X84.998 Y60.725 E.19818
G1 X88.167 Y60.725 E.10727
;LAYER_CHANGE
;Z:0.4
;HEIGHT:0.2
;BEFORE_LAYER_CHANGE
G92 E0
;0.4


G1 Z0.200 F9000
;AFTER_LAYER_CHANGE
M593 F0 ; Hz Input Shaping Test
;0.4
G1 F6000
G1 Z0.202 X92.477 Y60.725 E0.00119
G1 Z0.204 X89.119 Y55.929 E0.00380
G1 Z0.204 X89.119 Y55.725 E0.00014
G1 Z0.219 X128.124 Y55.725 E0.12305
G1 Z0.221 X131.625 Y60.725 E0.02164
G1 Z0.224 X139.36 Y60.725 E0.03124
G1 Z0.226 X142.861 Y55.725 E0.02703
G1 Z0.238 X175.275 Y55.725 E0.21069
G1 Z0.241 X175.275 Y63.275 E0.05272
G1 Z0.261 X123.593 Y63.275 E0.53152
G1 Z0.262 X122.093 Y61.775 E0.02210
G1 Z0.264 X116.907 Y61.775 E0.05576
G1 Z0.264 X115.407 Y63.275 E0.02309
G1 Z0.284 X63.275 Y63.275 E0.74121
G1 Z0.297 X63.275 Y97.86 E0.56815
G1 Z0.298 X61.775 Y99.587 E0.03791
G1 Z0.300 X61.775 Y105.512 E0.10044
G1 Z0.301 X63.275 Y107.239 E0.03911
G1 Z0.310 X63.275 Y131.761 E0.45771
G1 Z0.311 X61.775 Y133.488 E0.04303
G1 Z0.313 X61.775 Y139.413 E0.11370
G1 Z0.314 X63.275 Y141.14 E0.04423
G1 Z0.327 X63.275 Y175.275 E0.73449
G1 Z0.330 X55.725 Y175.275 E0.16610
G1 Z0.342 X55.725 Y142.481 E0.79017
